portfolio/adventure/img/svg/pinterest.svg

<svg xmlns="http://www.w3.org/2000/svg" width="14" height="17"><path d="M5.502 11.044c-.141.553-.283 1.132-.43 1.697-.145.558-.273 1.125-.484 1.637-.35.85-.795 1.67-1.378 2.334-.388.442-.305.265-.422.242-.089-.018-.097-.104-.114-.228-.095-.676-.031-1.455.005-2.214.04-.864.225-1.582.396-2.3.327-1.368.639-2.709.968-4.085.022-.091.081-.243.061-.295a4.138 4.138 0 0 1-.289-1.127 3.518 3.518 0 0 1 .094-1.288c.186-.701.615-1.323 1.277-1.549.421-.144.887-.079 1.17.087.291.171.491.442.585.825.099.409.026.896-.054 1.254-.18.808-.417 1.414-.632 2.194-.107.386-.227.783-.128 1.2.092.384.295.648.572.845.286.206.626.318 1.095.302.828-.028 1.404-.548 1.788-1.039.615-.785.988-1.845 1.13-3.106a7.54 7.54 0 0 0 .047-1.334c-.059-.852-.33-1.536-.76-2.066a3.571 3.571 0 0 0-1.694-1.134c-.699-.224-1.667-.298-2.527-.154-1.563.263-2.665 1.136-3.314 2.341a4.63 4.63 0 0 0-.565 2.26c0 .696.175 1.237.457 1.656.09.134.221.244.309.396.125.216-.019.538-.08.772-.075.282-.082.671-.417.677-.139.003-.313-.097-.43-.161C.858 9.205.323 8.336.104 7.208a5.815 5.815 0 0 1 0-2.145A6.09 6.09 0 0 1 3.069.991C3.821.554 4.671.247 5.704.099 6.046.05 6.401.03 6.786.012a6.584 6.584 0 0 1 2.917.536 5.971 5.971 0 0 1 2.01 1.422 5.356 5.356 0 0 1 1.237 2.193c.136.459.268.95.268 1.516 0 .568-.122 1.069-.208 1.569-.319 1.875-1.226 3.408-2.588 4.279-.33.212-.729.407-1.183.537-.449.129-.962.226-1.512.188a3.158 3.158 0 0 1-1.338-.382c-.364-.202-.67-.45-.887-.826z" fill-rule="evenodd"/></svg>

<svg xmlns="http://www.w3.org/2000/svg" xmlns:xlink="http://www.w3.org/1999/xlink" preserveaspectratio="xMidYMid" width="14" height="17" viewbox="0 0 14 17">
  <defs>
  </defs>
  <path d="M5.502,11.044 C5.361,11.597 5.219,12.176 5.072,12.741 C4.927,13.299 4.799,13.866 4.588,14.378 C4.238,15.228 3.793,16.048 3.210,16.712 C2.822,17.154 2.905,16.977 2.788,16.954 C2.699,16.936 2.691,16.850 2.674,16.726 C2.579,16.050 2.643,15.271 2.679,14.512 C2.719,13.648 2.904,12.930 3.075,12.212 C3.402,10.844 3.714,9.503 4.043,8.127 C4.065,8.036 4.124,7.884 4.104,7.832 C3.954,7.450 3.857,7.107 3.815,6.705 C3.766,6.244 3.803,5.814 3.909,5.417 C4.095,4.716 4.524,4.094 5.186,3.868 C5.607,3.724 6.073,3.789 6.356,3.955 C6.647,4.126 6.847,4.397 6.941,4.780 C7.040,5.189 6.967,5.676 6.887,6.034 C6.707,6.842 6.470,7.448 6.255,8.228 C6.148,8.614 6.028,9.011 6.127,9.428 C6.219,9.812 6.422,10.076 6.699,10.273 C6.985,10.479 7.325,10.591 7.794,10.575 C8.622,10.547 9.198,10.027 9.582,9.536 C10.197,8.751 10.570,7.691 10.712,6.430 C10.757,6.024 10.791,5.556 10.759,5.096 C10.700,4.244 10.429,3.560 9.999,3.030 C9.590,2.525 9.010,2.123 8.305,1.896 C7.606,1.672 6.638,1.598 5.778,1.742 C4.215,2.005 3.113,2.878 2.464,4.083 C2.124,4.714 1.899,5.440 1.899,6.343 C1.899,7.039 2.074,7.580 2.356,7.999 C2.446,8.133 2.577,8.243 2.665,8.395 C2.790,8.611 2.646,8.933 2.585,9.167 C2.510,9.449 2.503,9.838 2.168,9.844 C2.029,9.847 1.855,9.747 1.738,9.683 C0.858,9.205 0.323,8.336 0.104,7.208 C-0.029,6.524 -0.029,5.725 0.104,5.063 C0.233,4.422 0.472,3.831 0.736,3.352 C1.285,2.356 2.089,1.559 3.069,0.991 C3.821,0.554 4.671,0.247 5.704,0.099 C6.046,0.050 6.401,0.030 6.786,0.012 C7.911,-0.041 8.934,0.210 9.703,0.548 C10.516,0.905 11.164,1.381 11.713,1.970 C12.278,2.576 12.689,3.282 12.950,4.163 C13.086,4.622 13.218,5.113 13.218,5.679 C13.218,6.247 13.096,6.748 13.010,7.248 C12.691,9.123 11.784,10.656 10.422,11.527 C10.092,11.739 9.693,11.934 9.239,12.064 C8.790,12.193 8.277,12.290 7.727,12.252 C7.193,12.216 6.757,12.073 6.389,11.870 C6.025,11.668 5.719,11.420 5.502,11.044 Z" id="pinterest" fill-rule="evenodd"/>
</svg>
